docs/img/views.svg

<svg width="29" height="17" viewBox="0 0 29 17" fill="none" xmlns="http://www.w3.org/2000/svg">
<path d="M14.2595 0C8.81066 0 3.86934 2.98113 0.223147 7.82327C-0.0743823 8.21997 -0.0743823 8.77419 0.223147 9.1709C3.86934 14.0189 8.81066 17 14.2595 17C19.7084 17 24.6497 14.0189 28.2959 9.17673C28.5934 8.78003 28.5934 8.22581 28.2959 7.8291C24.6497 2.98113 19.7084 0 14.2595 0ZM14.6504 14.4856C11.0334 14.7131 8.04642 11.732 8.27394 8.10913C8.46062 5.12217 10.8817 2.7011 13.8687 2.51441C17.4857 2.28689 20.4726 5.26802 20.2451 8.89087C20.0526 11.872 17.6315 14.2931 14.6504 14.4856ZM14.4695 11.7203C12.521 11.8428 10.9109 10.2385 11.0392 8.28998C11.1384 6.67982 12.4452 5.37886 14.0553 5.27385C16.0039 5.15134 17.614 6.75566 17.4857 8.70419C17.3807 10.3202 16.0739 11.6211 14.4695 11.7203Z" fill="#746859"/>
</svg>

<svg width="29" height="17" viewBox="0 0 29 17" fill="none" xmlns="http://www.w3.org/2000/svg"><path d="M14.26 0C8.81 0 3.87 2.981.222 7.823a1.131 1.131 0 000 1.348C3.87 14.019 8.811 17 14.26 17c5.45 0 10.39-2.981 14.037-7.823a1.131 1.131 0 000-1.348C24.65 2.981 19.708 0 14.259 0zm.39 14.486a6.002 6.002 0 01-6.376-6.377c.187-2.987 2.608-5.408 5.595-5.595a6.002 6.002 0 016.376 6.377c-.192 2.981-2.614 5.402-5.595 5.595zm-.18-2.766a3.225 3.225 0 01-3.43-3.43c.098-1.61 1.405-2.911 3.015-3.016a3.225 3.225 0 013.43 3.43 3.243 3.243 0 01-3.015 3.016z" fill="#746859"/></svg>
